docs/img/icon-update.svg

<?xml version="1.0" encoding="UTF-8" standalone="no"?>
<svg width="32px" height="8px" viewBox="0 0 32 8" version="1.1" xmlns="http://www.w3.org/2000/svg" xmlns:xlink="http://www.w3.org/1999/xlink" xmlns:sketch="http://www.bohemiancoding.com/sketch/ns">
    <!-- Generator: Sketch 3.3.3 (12072) - http://www.bohemiancoding.com/sketch -->
    <title>icon-update</title>
    <desc>Created with Sketch.</desc>
    <defs></defs>
    <g id="Page-1" stroke="none" stroke-width="1" fill="none" fill-rule="evenodd" sketch:type="MSPage">
        <g id="Artboard-1" sketch:type="MSArtboardGroup" transform="translate(-421.000000, -72.000000)">
            <g id="icon-update" sketch:type="MSLayerGroup" transform="translate(405.000000, 44.000000)">
                <rect id="Rectangle-1" sketch:type="MSShapeGroup" x="0" y="0" width="64" height="64"></rect>
                <g id="Icons/Search-Copy-3-+-Icons/Search-Copy-5-+-Icons/Search-Copy-6" transform="translate(16.000000, 28.000000)" fill="#2897C5" sketch:type="MSShapeGroup">
                    <path d="M0.000730269589,3.27486839 C0.146964279,2.47941611 0.540276622,1.74409788 1.11579948,1.17338958 C2.69240788,-0.390029619 5.24451303,-0.391289899 6.81955195,1.17057296 C8.39459087,2.73243582 8.39331996,5.26319121 6.81671156,6.82661042 C5.24010317,8.39002962 2.68799802,8.3912899 1.1129591,6.82942704 C0.538009156,6.25928687 0.145435151,5.52435673 0,4.72904848 L0.000730269589,3.27486839 L0.000730269589,3.27486839 Z M2.20008589,2.20008589 C1.20673368,3.19343811 1.20592898,4.8093443 2.19829234,5.80170766 C3.1906557,6.79407102 4.80656189,6.79326632 5.79991411,5.79991411 C6.79326632,4.80656189 6.79407102,3.1906557 5.80170766,2.19829234 C4.8093443,1.20592898 3.19343811,1.20673368 2.20008589,2.20008589 L2.20008589,2.20008589 Z" id="Icons/Search-Copy-3"></path>
                    <path d="M12.0007303,3.27486839 C12.1469643,2.47941611 12.5402766,1.74409788 13.1157995,1.17338958 C14.6924079,-0.390029619 17.244513,-0.391289899 18.8195519,1.17057296 C20.3945909,2.73243582 20.39332,5.26319121 18.8167116,6.82661042 C17.2401032,8.39002962 14.687998,8.3912899 13.1129591,6.82942704 C12.5380092,6.25928687 12.1454352,5.52435673 12,4.72904848 L12.0007303,3.27486839 L12.0007303,3.27486839 Z M14.2000859,2.20008589 C13.2067337,3.19343811 13.205929,4.8093443 14.1982923,5.80170766 C15.1906557,6.79407102 16.8065619,6.79326632 17.7999141,5.79991411 C18.7932663,4.80656189 18.794071,3.1906557 17.8017077,2.19829234 C16.8093443,1.20592898 15.1934381,1.20673368 14.2000859,2.20008589 L14.2000859,2.20008589 Z" id="Icons/Search-Copy-5"></path>
                    <path d="M24.0007303,3.27486839 C24.1469643,2.47941611 24.5402766,1.74409788 25.1157995,1.17338958 C26.6924079,-0.390029619 29.244513,-0.391289899 30.8195519,1.17057296 C32.3945909,2.73243582 32.39332,5.26319121 30.8167116,6.82661042 C29.2401032,8.39002962 26.687998,8.3912899 25.1129591,6.82942704 C24.5380092,6.25928687 24.1454352,5.52435673 24,4.72904848 L24.0007303,3.27486839 L24.0007303,3.27486839 Z M26.2000859,2.20008589 C25.2067337,3.19343811 25.205929,4.8093443 26.1982923,5.80170766 C27.1906557,6.79407102 28.8065619,6.79326632 29.7999141,5.79991411 C30.7932663,4.80656189 30.794071,3.1906557 29.8017077,2.19829234 C28.8093443,1.20592898 27.1934381,1.20673368 26.2000859,2.20008589 L26.2000859,2.20008589 Z" id="Icons/Search-Copy-6"></path>
                </g>
            </g>
        </g>
    </g>
</svg>

<svg width="32" height="8" viewBox="0 0 32 8" xmlns="http://www.w3.org/2000/svg"><title>icon-update</title><desc>Created with Sketch.</desc><g fill="none" fill-rule="evenodd"><g><g><path d="M-16-28h64v64h-64z"/><g fill="#2897C5"><path d="M0 3.275c.147-.796.54-1.53 1.116-2.102C2.692-.39 5.246-.39 6.82 1.17c1.575 1.562 1.573 4.093-.003 5.657C5.24 8.39 2.687 8.39 1.113 6.83.538 6.26.145 5.523 0 4.73V3.274zM2.2 2.2c-.993.993-.994 2.61-.002 3.602.993.992 2.61.99 3.602-.002.993-.993.994-2.61.002-3.602-.993-.992-2.61-.99-3.602.002z"/><path d="M12 3.275c.147-.796.54-1.53 1.116-2.102C14.692-.39 17.246-.39 18.82 1.17c1.575 1.562 1.573 4.093-.003 5.657-1.577 1.563-4.13 1.564-5.704.002-.575-.57-.968-1.306-1.113-2.1V3.274zM14.2 2.2c-.993.993-.994 2.61-.002 3.602.993.992 2.61.99 3.602-.002.993-.993.994-2.61.002-3.602-.993-.992-2.61-.99-3.602.002z"/><path d="M24 3.275c.147-.796.54-1.53 1.116-2.102C26.692-.39 29.246-.39 30.82 1.17c1.575 1.562 1.573 4.093-.003 5.657-1.577 1.563-4.13 1.564-5.704.002-.575-.57-.968-1.306-1.113-2.1V3.274zM26.2 2.2c-.993.993-.994 2.61-.002 3.602.993.992 2.61.99 3.602-.002.993-.993.994-2.61.002-3.602-.993-.992-2.61-.99-3.602.002z"/></g></g></g></g></svg>
